X: 106
T: Skylark [The]
M: C|
L: 1/8
R: Reel
K: D
agfg efdB|AF(3FEF DFAd|BG(3GFG EFGE|FAA2 FAdf|
agfg efdB|AF(3FEF DFAd|BGGF G2ag|faeg fdd2 :|
a2fd Adfd|efed cAA2|a2fa bged|Beed efge|
f2df g2eg|f2df edBA|FA(3ABA GBag|faeg fdd2 :|
